X: 128
T: No_54_Song_of_Departure.krn
%%abc-version 2.0
%%abcx-abcm2ps-target-version 5.9.1 (29 Sep 2008)
%%abc-creator hum2abc beta
%%abcx-conversion-date 2020/08/10 18:54:56
%%gracespace 0 6 6
%%humdrum-veritas 3843977694
%%humdrum-veritas-data 2523163502
%%linebreak <none>
%%barnumbers 0
L: 1/8
M: 3/4
%%staves {1 2}
V: 1 clef=bass
V: 2 clef=bass
K: Gb
[V:1] [K:clef=bass][M:3/4]{/E}E2>>D2 ED | 
[V:2] [K:clef=bass][M:3/4]G,,G,, G,,G,, G,,G,, | 
[V:1] B,<B,-B,2-B,E, | 
[V:2] G,,G,, G,,G,, G,,G,, | 
[V:1] {/E}E2>>D2 ED ||  
[V:2] z6 ||  
[V:1] [M:2/4]B,<B,- B,C/B,/ | 
[V:2] [M:2/4]z4 | 
[V:1] A,G, E,/E,3/ | 
[V:2] z4 | 
[V:1] {/B,}B,3C/B,/ ||  
[V:2] z4 ||  
[V:1] [M:3/4]A,G, E,<E,- E,3/D,/ ||  
[V:2] [M:3/4]z6 ||  
[V:1] [M:2/4]E,D, B,,/B,,3/ | 
[V:2] [M:2/4]z4 | 
[V:1] {/E,}E,7/D,/ | 
[V:2] z4 | 
[V:1] E,D, (3B,,B,,B,, | 
[V:2] z4 | 
[V:1] B,,4- ||  
[V:2] z4 ||  
[V:1] [M:3/4]B,,2>>E,2 B,3/B,/ | 
[V:2] [M:3/4]z6 | 
[V:1] E2>>D2D2 ||  
[V:2] z6 ||  
[V:1] [M:2/4]B,/A,A,/ F,/E,3/ | 
[V:2] [M:2/4]z4 | 
[V:1] {/B,}B,3C/B,/ ||  
[V:2] z4 ||  
[V:1] [M:3/4]A,G, E,<E, E,3/D,/ ||  
[V:2] [M:3/4]z6 ||  
[V:1] [M:2/4]E,D, B,,/B,,3/ | 
[V:2] [M:2/4]z4 | 
[V:1] {/E,}E,7/D,/ | 
[V:2] z4 | 
[V:1] E,D, (3B,,B,,B,, | 
[V:2] z4 | 
[V:1] B,,4- | 
[V:2] z4 | 
[V:1] B,,4 |]  
[V:2] z4 |]  


